RED
LEFT 180
FORWARD 60
RIGHT 90
FORWARD 60
RIGHT 90
FORWARD 60
LEFT 180
TRANSPARENT
FORWARD 60
RED
RIGHT 90
FORWARD 60
RIGHT 90
FORWARD 60

TRANSPARENT
FORWARD 20

RED
RIGHT 90
FORWARD 120
TRANSPARENT
RIGHT 180
FORWARD 120
RED
RIGHT 150
FORWARD 145
LEFT 150
FORWARD 120

TRANSPARENT
RIGHT 90
FORWARD 20
RIGHT 90
FORWARD 120

RED
LEFT 90
FORWARD 60
LEFT 90
FORWARD 60
LEFT 90
FORWARD 60
RIGHT 90
FORWARD 60
RIGHT 90 
FORWARD 60

TRANSPARENT
FORWARD 20


RED
FORWARD 60
RIGHT 180
TRANSPARENT
FORWARD 30
RED
LEFT 90
FORWARD 120
RIGHT 90
FORWARD 30
LEFT 180
TRANSPARENT
FORWARD 30
RED
FORWARD 30

TRANSPARENT
FORWARD 20

RED
LEFT 90
FORWARD 120
RIGHT 90
FORWARD 60
RIGHT 90
FORWARD 30
RIGHT 90 
FORWARD 60
TRANSPARENT
RIGHT 180
FORWARD 60
RED 
RIGHT 90
FORWARD 90

TRANSPARENT
LEFT 90
FORWARD 20


RED
FORWARD 60
LEFT 90
FORWARD 60
LEFT 90
FORWARD 60
RIGHT 90
FORWARD 60
RIGHT 90 
FORWARD 60